src/images/resume.svg

<svg width="44" height="52" viewBox="0 0 44 52" fill="none" xmlns="http://www.w3.org/2000/svg">
<path fill-rule="evenodd" clip-rule="evenodd" d="M12.5385 5H38.3461V38.9744H34.5513V43.9744H38.3461H43.3461V38.9744V5V0H38.3461H12.5385H7.53845V5V8.16667H12.5385V5Z" fill="#1EA5AD"/>
<path fill-rule="evenodd" clip-rule="evenodd" d="M23.8718 8.02564H5H0V13.0256V47V52H5H30.8077H35.8077V47V19.9615L30.8077 14.9615V47H5V13.0256H28.8718L23.8718 8.02564Z" fill="#1EA5AD"/>
<path d="M32.0384 18.7051L25.1282 11.7949V18.7051H32.0384Z" stroke="#1EA5AD" stroke-width="3"/>
</svg>

<svg xmlns="http://www.w3.org/2000/svg" width="44" height="52" fill="none" xmlns:v="https://vecta.io/nano"><g fill-rule="evenodd" fill="#1ea5ad"><path d="M12.539 5h25.808v33.974h-3.795v5h3.795 5v-5V5 0h-5-25.808-5v5 3.167h5V5z"/><path d="M23.872 8.026H5 0v5V47v5h5 25.808 5v-5-27.038l-5-5V47H5V13.026h23.872l-5-5z"/></g><path d="M32.038 18.705l-6.91-6.91v6.91h6.91z" stroke="#1ea5ad" stroke-width="3"/></svg>
